assets/icons/24px/outline/website-with-image-24px.svg

<svg width="24" height="24" viewBox="0 0 24 24" fill="none" xmlns="http://www.w3.org/2000/svg">
<rect x="3" y="3" width="18" height="18" rx="2" stroke="white" stroke-width="2" stroke-linecap="round" stroke-linejoin="round"/>
<path d="M6.5 11.5C6.5 10.5572 6.5 10.0858 6.79289 9.79289C7.08579 9.5 7.55719 9.5 8.5 9.5H9.5C10.4428 9.5 10.9142 9.5 11.2071 9.79289C11.5 10.0858 11.5 10.5572 11.5 11.5V15.5C11.5 16.4428 11.5 16.9142 11.2071 17.2071C10.9142 17.5 10.4428 17.5 9.5 17.5H8.5C7.55719 17.5 7.08579 17.5 6.79289 17.2071C6.5 16.9142 6.5 16.4428 6.5 15.5V11.5Z" stroke="white" stroke-width="2" stroke-linecap="round" stroke-linejoin="round"/>
<path d="M3 6L21 6" stroke="white" stroke-width="2" stroke-linecap="round" stroke-linejoin="round"/>
<path d="M15 10H17M15 17H15.8M15 13.5H17" stroke="white" stroke-width="2" stroke-linecap="round" stroke-linejoin="round"/>
</svg>

<svg width="24" height="24" fill="none" xmlns="http://www.w3.org/2000/svg"><rect x="3" y="3" width="18" height="18" rx="2" stroke="#fff" stroke-width="2" stroke-linecap="round" stroke-linejoin="round"/><path d="M6.5 11.5c0-.943 0-1.414.293-1.707C7.086 9.5 7.557 9.5 8.5 9.5h1c.943 0 1.414 0 1.707.293.293.293.293.764.293 1.707v4c0 .943 0 1.414-.293 1.707-.293.293-.764.293-1.707.293h-1c-.943 0-1.414 0-1.707-.293-.293-.293-.293-.764-.293-1.707v-4zM3 6h18m-6 4h2m-2 7h.8m-.8-3.5h2" stroke="#fff" stroke-width="2" stroke-linecap="round" stroke-linejoin="round"/></svg>
